X:182
T: Jin keng diao
N: C1674
O: China,Jiangxi, Longnan
S: IV, 232]
R: Shange. Nann qing]
M: 2/4
L: 1/16
K: C
A2A2e2c2 | e2d2A4 | A2c2A4 |
c2c2c2F2 | G2GFD2F2 | D8 |
d2c2A2Ac | d2c6 | d2dcA2Ac | d2cdd4 |
F2FGA2F2 | G2GFD2F2 | D8

@@@ Tune index: 6737
